;FLAVOR:Marlin
;TIME:10704
;Filament used: 5.88054m
;Layer height: 0.12
;MINX:53
;MINY:41.495
;MINZ:0.12
;MAXX:167
;MAXY:178.011
;MAXZ:2.64
;Generated with Creality Slicer 4.8.2-254
M140 S60
M105
M190 S60
M104 S200
M105
M109 S200
M82 ;absolute extrusion mode

G28 ;Home

G92 E0 ;Reset Extruder
G1 Z2.0 F3000 ;Move Z Axis up
G1 X10.1 Y20 Z0.28 F5000.0 ;Move to start position
G1 X10.1 Y200.0 Z0.28 F1500.0 E15 ;Draw the first line
G1 X10.4 Y200.0 Z0.28 F5000.0 ;Move to side a little
G1 X10.4 Y20 Z0.28 F1500.0 E30 ;Draw the second line
G92 E0 ;Reset Extruder
G1 Z2.0 F3000 ;Move Z Axis up

G92 E0
G92 E0
G1 F2400 E-0.8
;LAYER_COUNT:22
;LAYER:0
M107
G0 F6000 X56.276 Y46.577 Z0.12
;TYPE:SKIRT
G1 F2400 E0
G1 F1200 X56.511 Y46.299 E0.00726
G1 X57.147 Y45.609 E0.02599
G1 X57.745 Y45.055 E0.04226
G1 X57.915 Y44.909 E0.04673
G1 X58.181 Y44.688 E0.05363
G1 X58.469 Y44.456 E0.06101
G1 X59.224 Y43.899 E0.07974
G1 X60.021 Y43.41 E0.0984
G1 X60.251 Y43.282 E0.10365
G1 X60.502 Y43.147 E0.10934
G1 X60.806 Y42.988 E0.11618
G1 X61.655 Y42.589 E0.1349
G1 X62.586 Y42.247 E0.1547
G1 X62.842 Y42.166 E0.16005
G1 X63.352 Y42.014 E0.17067
G1 X64.263 Y41.787 E0.18941
G1 X65.269 Y41.63 E0.20973
G1 X65.663 Y41.587 E0.21764
G1 X66.629 Y41.524 E0.23696
G1 X67.886 Y41.498 E0.26205
G1 X68.113 Y41.496 E0.26658
G1 X124.62 Y41.496 E1.39424
G1 X125.128 Y41.503 E1.40437
G1 X125.834 Y41.536 E1.41848
G1 X126.639 Y41.599 E1.43459
G1 X127.014 Y41.634 E1.44211
G1 X127.866 Y41.73 E1.45922
G1 X130.444 Y41.985 E1.51092
G1 X132.979 Y42.164 E1.56163
G1 X135.454 Y42.267 E1.61107
G1 X137.985 Y42.302 E1.66158
G1 X140.501 Y42.265 E1.71179
G1 X143.031 Y42.156 E1.76233
G1 X145.508 Y41.98 E1.81189
G1 X148.118 Y41.719 E1.86423
G1 X149.152 Y41.601 E1.885
G1 X149.603 Y41.558 E1.89404
G1 X150.28 Y41.523 E1.90757
G1 X151.484 Y41.498 E1.9316
G1 X152.031 Y41.495 E1.94252
G1 X152.697 Y41.503 E1.95581
G1 X153.383 Y41.535 E1.96951
G1 X154.184 Y41.597 E1.98555
G1 X155.115 Y41.709 E2.00426
G1 X156.372 Y41.992 E2.02997
G1 X156.647 Y42.071 E2.03568
G1 X156.973 Y42.17 E2.04248
G1 X157.272 Y42.266 E2.04875
G1 X158.152 Y42.59 E2.06746
G1 X159.013 Y42.995 E2.08645
G1 X159.286 Y43.138 E2.0926
G1 X159.596 Y43.306 E2.09964
G1 X159.856 Y43.453 E2.1056
G1 X160.652 Y43.949 E2.12431
G1 X161.251 Y44.39 E2.13916
G1 X161.454 Y44.55 E2.14432
G1 X161.787 Y44.823 E2.15291
G1 X162.033 Y45.033 E2.15936
G1 X162.72 Y45.672 E2.17809
G1 X163.271 Y46.274 E2.19437
G1 X163.43 Y46.461 E2.19927
G1 X163.663 Y46.744 E2.20659
G1 X163.891 Y47.031 E2.2139
G1 X164.442 Y47.789 E2.2326
G1 X164.897 Y48.537 E2.25007
G1 X165.039 Y48.793 E2.25592
G1 X165.23 Y49.153 E2.26405
G1 X165.371 Y49.431 E2.27027
G1 X165.759 Y50.285 E2.28899
G1 X166.002 Y50.945 E2.30302
G1 X166.066 Y51.138 E2.30708
G1 X166.197 Y51.56 E2.3159
G1 X166.308 Y51.946 E2.32391
G1 X166.528 Y52.858 E2.34264
G1 X166.66 Y53.698 E2.35961
G1 X166.689 Y53.944 E2.36455
G1 X166.726 Y54.306 E2.37181
G1 X166.738 Y54.448 E2.37465
G1 X166.775 Y55.145 E2.38858
G1 X166.801 Y56.394 E2.41351
G1 X166.803 Y56.623 E2.41808
G1 X166.803 Y61.417 E2.51375
G1 X166.84 Y64.015 E2.5656
G1 X166.955 Y66.69 E2.61904
G1 X166.972 Y66.991 E2.62505
G1 X166.985 Y67.295 E2.63112
G1 X166.995 Y67.625 E2.63771
G1 X167 Y67.958 E2.64436
G1 X166.999 Y92.812 E3.14035
G1 X166.989 Y93.517 E3.15442
G1 X166.98 Y93.828 E3.16063
G1 X166.934 Y94.876 E3.18156
G1 X166.886 Y95.716 E3.19835
G1 X166.813 Y98.307 E3.25008
G1 X166.804 Y99.603 E3.27594
G1 X166.803 Y104.852 E3.38069
G1 X166.785 Y106.122 E3.40604
G1 X166.785 Y108.689 E3.45727
G1 X166.915 Y112.451 E3.53239
G1 X166.955 Y113.166 E3.54668
G1 X166.97 Y113.554 E3.55442
G1 X166.998 Y114.926 E3.58181
G1 X167 Y115.15 E3.58628
G1 X166.998 Y163.378 E4.54872
G1 X166.991 Y163.899 E4.55912
G1 X166.96 Y164.595 E4.57302
G1 X166.904 Y165.323 E4.58759
G1 X166.792 Y166.254 E4.60631
G1 X166.617 Y167.109 E4.62372
G1 X166.551 Y167.377 E4.62923
G1 X166.349 Y168.091 E4.64404
G1 X166.237 Y168.442 E4.65139
G1 X165.81 Y169.566 E4.67539
G1 X165.54 Y170.133 E4.68792
G1 X165.427 Y170.354 E4.69287
G1 X165.279 Y170.633 E4.69918
G1 X165.125 Y170.914 E4.70557
G1 X164.466 Y171.971 E4.73043
G1 X164.08 Y172.489 E4.74332
G1 X163.947 Y172.657 E4.7476
G1 X163.767 Y172.877 E4.75327
G1 X163.54 Y173.149 E4.76034
G1 X162.909 Y173.843 E4.77906
G1 X162.292 Y174.42 E4.79591
G1 X162.114 Y174.574 E4.80061
G1 X161.807 Y174.83 E4.80859
G1 X161.527 Y175.055 E4.81576
G1 X160.772 Y175.61 E4.83446
G1 X159.973 Y176.099 E4.85315
G1 X159.69 Y176.256 E4.85961
G1 X159.429 Y176.396 E4.86552
G1 X159.179 Y176.526 E4.87114
G1 X158.329 Y176.923 E4.88986
G1 X157.518 Y177.224 E4.90713
G1 X157.276 Y177.303 E4.91221
G1 X156.948 Y177.404 E4.91906
G1 X156.623 Y177.499 E4.92581
G1 X155.713 Y177.724 E4.94452
G1 X154.724 Y177.877 E4.96449
G1 X154.328 Y177.92 E4.97244
G1 X153.367 Y177.982 E4.99166
G1 X152.1 Y178.008 E5.01695
G1 X151.547 Y178.01 E5.02798
G1 X150.95 Y178.003 E5.0399
G1 X150.233 Y177.97 E5.05422
G1 X149.432 Y177.907 E5.07026
G1 X149.059 Y177.871 E5.07773
G1 X148.231 Y177.777 E5.09436
G1 X145.67 Y177.524 E5.14572
G1 X143.12 Y177.344 E5.19674
G1 X140.633 Y177.239 E5.24641
G1 X138.111 Y177.204 E5.29674
G1 X135.587 Y177.241 E5.34712
G1 X133.056 Y177.349 E5.39767
G1 X130.572 Y177.525 E5.44737
G1 X128.018 Y177.779 E5.49859
G1 X126.792 Y177.917 E5.52321
G1 X125.787 Y177.984 E5.54331
G1 X124.571 Y178.009 E5.56758
G1 X124.345 Y178.011 E5.57209
G1 X67.798 Y178.009 E6.70055
G1 X67.298 Y178.002 E6.71053
G1 X66.604 Y177.97 E6.72439
G1 X65.815 Y177.909 E6.74018
G1 X64.884 Y177.797 E6.7589
G1 X63.589 Y177.504 E6.78539
G1 X63.321 Y177.426 E6.79096
G1 X63.016 Y177.332 E6.79733
G1 X62.7 Y177.23 E6.80396
G1 X61.821 Y176.904 E6.82267
G1 X60.972 Y176.505 E6.84139
G1 X60.724 Y176.375 E6.84698
G1 X60.467 Y176.236 E6.85281
G1 X60.202 Y176.088 E6.85886
G1 X59.404 Y175.596 E6.87757
G1 X58.673 Y175.056 E6.89571
G1 X58.428 Y174.859 E6.90198
G1 X58.147 Y174.626 E6.90927
G1 X57.925 Y174.435 E6.91511
G1 X57.241 Y173.793 E6.93383
G1 X56.744 Y173.251 E6.94851
G1 X56.601 Y173.084 E6.95289
G1 X56.316 Y172.738 E6.96184
G1 X56.078 Y172.436 E6.96951
G1 X55.53 Y171.675 E6.98823
G1 X55.089 Y170.945 E7.00525
G1 X54.936 Y170.668 E7.01156
G1 X54.734 Y170.285 E7.0202
G1 X54.61 Y170.038 E7.02572
G1 X54.226 Y169.183 E7.04442
G1 X54.005 Y168.582 E7.0572
G1 X53.939 Y168.384 E7.06137
G1 X53.806 Y167.952 E7.07039
G1 X53.695 Y167.567 E7.07838
G1 X53.473 Y166.656 E7.0971
G1 X53.334 Y165.763 E7.11513
G1 X53.305 Y165.508 E7.12025
G1 X53.269 Y165.134 E7.12775
G1 X53.253 Y164.932 E7.13179
G1 X53.221 Y164.282 E7.14478
G1 X53.199 Y163.178 E7.16682
G1 X53.197 Y162.959 E7.17119
G1 X53.197 Y158.09 E7.26835
G1 X53.16 Y155.492 E7.32021
G1 X53.044 Y152.777 E7.37444
G1 X53.028 Y152.508 E7.37981
G1 X53.013 Y152.178 E7.38641
G1 X53.004 Y151.862 E7.39271
G1 X53 Y151.549 E7.39896
G1 X53.001 Y126.694 E7.89497
G1 X53.011 Y125.988 E7.90906
G1 X53.02 Y125.679 E7.91523
G1 X53.064 Y124.669 E7.9354
G1 X53.116 Y123.758 E7.95361
G1 X53.189 Y121.174 E8.0052
G1 X53.198 Y119.876 E8.0311
G1 X53.199 Y114.671 E8.13498
G1 X53.217 Y113.42 E8.15994
G1 X53.217 Y110.861 E8.21101
G1 X53.081 Y106.965 E8.28881
G1 X53.047 Y106.363 E8.30084
G1 X53.031 Y105.964 E8.30881
G1 X53.003 Y104.591 E8.33621
G1 X53.001 Y104.367 E8.34068
G1 X53.001 Y56.144 E9.30303
G1 X53.008 Y55.622 E9.31344
G1 X53.041 Y54.91 E9.32767
G1 X53.101 Y54.144 E9.343
G1 X53.214 Y53.213 E9.36172
G1 X53.42 Y52.238 E9.3816
G1 X53.487 Y51.98 E9.38692
G1 X53.653 Y51.407 E9.39883
G1 X53.76 Y51.071 E9.40587
G1 X54.082 Y50.19 E9.42458
G1 X54.348 Y49.6 E9.4375
G1 X54.5 Y49.293 E9.44434
G1 X54.597 Y49.105 E9.44856
G1 X54.748 Y48.824 E9.45492
G1 X54.904 Y48.542 E9.46136
G1 X55.392 Y47.742 E9.48006
G1 X55.868 Y47.085 E9.49625
G1 X56.016 Y46.896 E9.50104
G1 X56.276 Y46.577 E9.50925
G0 F6000 X56.582 Y46.835
G1 F1200 X56.817 Y46.557 E9.51651
G1 X57.441 Y45.88 E9.53489
G1 X58.006 Y45.359 E9.55022
G1 X58.176 Y45.213 E9.5547
G1 X58.432 Y44.999 E9.56136
G1 X58.72 Y44.767 E9.56874
G1 X59.462 Y44.221 E9.58712
G1 X60.215 Y43.76 E9.60474
G1 X60.445 Y43.632 E9.60999
G1 X60.687 Y43.501 E9.61548
G1 X60.991 Y43.342 E9.62233
G1 X61.825 Y42.951 E9.64071
G1 X62.706 Y42.629 E9.65943
G1 X63.164 Y42.486 E9.66901
G1 X63.466 Y42.397 E9.67529
G1 X64.359 Y42.176 E9.69365
G1 X65.312 Y42.028 E9.71289
G1 X65.706 Y41.985 E9.7208
G1 X66.637 Y41.924 E9.73942
G1 X67.894 Y41.898 E9.76451
G1 X68.113 Y41.896 E9.76888
G1 X124.614 Y41.896 E10.89642
G1 X125.122 Y41.903 E10.90656
G1 X125.803 Y41.934 E10.92016
G1 X126.608 Y41.997 E10.93628
G1 X126.969 Y42.032 E10.94352
G1 X127.778 Y42.123 E10.95976
G1 X130.413 Y42.384 E11.0126
G1 X132.935 Y42.561 E11.06306
G1 X135.468 Y42.667 E11.11365
G1 X137.985 Y42.702 E11.16388
G1 X140.524 Y42.665 E11.21456
G1 X143.043 Y42.556 E11.26487
G1 X145.541 Y42.378 E11.31485
G1 X148.128 Y42.12 E11.36673
G1 X149.197 Y41.998 E11.3882
G1 X149.636 Y41.957 E11.397
G1 X150.288 Y41.923 E11.41003
G1 X151.492 Y41.898 E11.43406
G1 X152.032 Y41.895 E11.44484
G1 X152.691 Y41.903 E11.45799
G1 X153.352 Y41.934 E11.4712
G1 X154.153 Y41.996 E11.48723
G1 X155.067 Y42.106 E11.5056
G1 X156.262 Y42.376 E11.53005
G1 X156.537 Y42.455 E11.53576
G1 X156.85 Y42.55 E11.54229
G1 X157.149 Y42.646 E11.54856
G1 X158.013 Y42.966 E11.56694
G1 X158.827 Y43.349 E11.58489
G1 X159.1 Y43.492 E11.59104
G1 X159.399 Y43.655 E11.59784
G1 X159.659 Y43.802 E11.6038
G1 X160.44 Y44.289 E11.62217
G1 X161.004 Y44.704 E11.63614
G1 X161.207 Y44.864 E11.6413
G1 X161.527 Y45.127 E11.64957
G1 X161.773 Y45.337 E11.65602
G1 X162.447 Y45.965 E11.67441
G1 X162.966 Y46.533 E11.68976
G1 X163.125 Y46.72 E11.69466
G1 X163.35 Y46.992 E11.7017
G1 X163.578 Y47.279 E11.70902
G1 X164.119 Y48.025 E11.72741
G1 X164.547 Y48.731 E11.74388
G1 X164.689 Y48.987 E11.74973
G1 X164.874 Y49.334 E11.75757
G1 X165.015 Y49.612 E11.76379
G1 X165.395 Y50.451 E11.78217
G1 X165.622 Y51.071 E11.79535
G1 X165.686 Y51.264 E11.79941
G1 X165.812 Y51.671 E11.80791
G1 X165.923 Y52.057 E11.81593
G1 X166.139 Y52.952 E11.8343
G1 X166.263 Y53.745 E11.85032
G1 X166.292 Y53.991 E11.85526
G1 X166.327 Y54.339 E11.86224
G1 X166.339 Y54.481 E11.86508
G1 X166.375 Y55.153 E11.87851
G1 X166.401 Y56.402 E11.90344
G1 X166.403 Y56.623 E11.90785
G1 X166.403 Y61.423 E12.00364
G1 X166.44 Y64.039 E12.05585
G1 X166.555 Y66.727 E12.10954
G1 X166.572 Y67.014 E12.11528
G1 X166.585 Y67.307 E12.12113
G1 X166.595 Y67.637 E12.12772
G1 X166.6 Y67.958 E12.13413
G1 X166.599 Y92.806 E12.63
G1 X166.589 Y93.511 E12.64407
G1 X166.58 Y93.811 E12.65006
G1 X166.535 Y94.854 E12.67089
G1 X166.486 Y95.719 E12.68818
G1 X166.413 Y98.293 E12.73957
G1 X166.404 Y99.6 E12.76565
G1 X166.403 Y104.846 E12.87034
G1 X166.385 Y106.116 E12.89569
G1 X166.385 Y108.673 E12.94672
G1 X166.517 Y112.491 E13.02295
G1 X166.556 Y113.189 E13.03691
G1 X166.57 Y113.562 E13.04435
G1 X166.598 Y114.934 E13.07174
G1 X166.6 Y115.15 E13.07605
G1 X166.598 Y163.372 E14.03837
G1 X166.591 Y163.893 E14.04877
G1 X166.561 Y164.564 E14.06217
G1 X166.505 Y165.292 E14.07675
G1 X166.394 Y166.206 E14.09512
G1 X166.228 Y167.014 E14.11158
G1 X166.162 Y167.282 E14.11709
G1 X165.968 Y167.969 E14.13133
G1 X165.856 Y168.32 E14.13869
G1 X165.444 Y169.403 E14.16181
G1 X165.184 Y169.951 E14.17391
G1 X165.071 Y170.172 E14.17887
G1 X164.929 Y170.44 E14.18492
G1 X164.775 Y170.721 E14.19132
G1 X164.139 Y171.74 E14.21529
G1 X163.766 Y172.24 E14.22774
G1 X163.633 Y172.408 E14.23201
G1 X163.46 Y172.621 E14.23749
G1 X163.233 Y172.893 E14.24456
G1 X162.613 Y173.573 E14.26292
G1 X162.03 Y174.117 E14.27883
G1 X161.852 Y174.271 E14.28353
G1 X161.557 Y174.518 E14.29121
G1 X161.277 Y174.743 E14.29838
G1 X160.535 Y175.288 E14.31675
G1 X159.779 Y175.749 E14.33442
G1 X159.496 Y175.906 E14.34088
G1 X159.244 Y176.041 E14.34658
G1 X158.994 Y176.171 E14.35221
G1 X158.16 Y176.56 E14.37057
G1 X157.393 Y176.844 E14.38689
G1 X157.151 Y176.923 E14.39197
G1 X156.836 Y177.02 E14.39855
G1 X156.511 Y177.115 E14.40531
G1 X155.617 Y177.335 E14.42368
G1 X154.681 Y177.479 E14.44258
G1 X154.285 Y177.522 E14.45053
G1 X153.358 Y177.582 E14.46907
G1 X152.091 Y177.608 E14.49436
G1 X151.547 Y177.61 E14.50521
G1 X150.955 Y177.603 E14.51703
G1 X150.265 Y177.571 E14.53081
G1 X149.464 Y177.508 E14.54685
G1 X149.104 Y177.474 E14.55406
G1 X148.24 Y177.376 E14.57142
G1 X145.705 Y177.125 E14.62225
G1 X143.165 Y176.946 E14.67307
G1 X140.62 Y176.839 E14.7239
G1 X138.111 Y176.804 E14.77397
G1 X135.564 Y176.841 E14.82481
G1 X133.047 Y176.949 E14.87508
G1 X130.541 Y177.127 E14.92522
G1 X127.928 Y177.386 E14.97762
G1 X126.747 Y177.519 E15.00134
G1 X125.779 Y177.584 E15.0207
G1 X124.563 Y177.609 E15.04497
G1 X124.345 Y177.611 E15.04932
G1 X67.804 Y177.609 E16.17766
G1 X67.304 Y177.602 E16.18764
G1 X66.635 Y177.571 E16.201
G1 X65.846 Y177.51 E16.21679
G1 X64.932 Y177.4 E16.23516
G1 X63.701 Y177.12 E16.26036
G1 X63.433 Y177.042 E16.26593
G1 X63.139 Y176.952 E16.27206
G1 X62.823 Y176.85 E16.27869
G1 X61.96 Y176.529 E16.29707
G1 X61.158 Y176.15 E16.31477
G1 X60.662 Y175.887 E16.32597
G1 X60.397 Y175.739 E16.33203
G1 X59.614 Y175.255 E16.3504
G1 X58.924 Y174.745 E16.36752
G1 X58.679 Y174.548 E16.37379
G1 X58.408 Y174.322 E16.38084
G1 X58.186 Y174.131 E16.38668
G1 X57.515 Y173.501 E16.40505
G1 X57.047 Y172.99 E16.41888
G1 X56.904 Y172.823 E16.42326
G1 X56.631 Y172.49 E16.43186
G1 X56.393 Y172.188 E16.43953
G1 X55.855 Y171.441 E16.4579
G1 X55.439 Y170.752 E16.47396
G1 X55.286 Y170.475 E16.48028
G1 X55.092 Y170.106 E16.4886
G1 X54.968 Y169.859 E16.49411
G1 X54.591 Y169.019 E16.51249
G1 X54.385 Y168.455 E16.52447
G1 X54.319 Y168.257 E16.52863
G1 X54.19 Y167.841 E16.53733
G1 X54.079 Y167.456 E16.54532
G1 X53.862 Y166.562 E16.56368
G1 X53.732 Y165.718 E16.58072
G1 X53.703 Y165.463 E16.58584
G1 X53.668 Y165.102 E16.59308
G1 X53.652 Y164.9 E16.59713
G1 X53.621 Y164.274 E16.60963
G1 X53.599 Y163.17 E16.63167
G1 X53.597 Y162.959 E16.63588
G1 X53.597 Y158.084 E16.73317
G1 X53.56 Y155.468 E16.78538
G1 X53.446 Y152.801 E16.83865
G1 X53.427 Y152.484 E16.84499
G1 X53.413 Y152.167 E16.85132
G1 X53.404 Y151.851 E16.85763
G1 X53.4 Y151.549 E16.86365
G1 X53.401 Y126.7 E17.35954
G1 X53.411 Y125.994 E17.37363
G1 X53.419 Y125.696 E17.37958
G1 X53.463 Y124.692 E17.39964
G1 X53.516 Y123.757 E17.41833
G1 X53.589 Y121.188 E17.46961
G1 X53.598 Y119.878 E17.49576
G1 X53.599 Y114.677 E17.59955
G1 X53.617 Y113.426 E17.62452
G1 X53.617 Y110.876 E17.6754
G1 X53.479 Y106.928 E17.75424
G1 X53.446 Y106.34 E17.76599
G1 X53.431 Y105.956 E17.77366
G1 X53.403 Y104.583 E17.80107
G1 X53.401 Y104.367 E17.80538
G1 X53.401 Y56.149 E18.76762
G1 X53.408 Y55.627 E18.77804
G1 X53.439 Y54.941 E18.79174
G1 X53.499 Y54.175 E18.80707
G1 X53.611 Y53.261 E18.82545
G1 X53.807 Y52.339 E18.84426
G1 X53.874 Y52.081 E18.84958
G1 X54.034 Y51.529 E18.86105
G1 X54.141 Y51.193 E18.86809
G1 X54.458 Y50.328 E18.88647
G1 X54.708 Y49.775 E18.89858
G1 X54.856 Y49.477 E18.90522
G1 X54.953 Y49.289 E18.90944
G1 X55.098 Y49.018 E18.91558
G1 X55.254 Y48.736 E18.92201
G1 X55.734 Y47.95 E18.94039
G1 X56.183 Y47.332 E18.95563
G1 X56.331 Y47.143 E18.96042
G1 X56.582 Y46.835 E18.96835
G0 F6000 X56.887 Y47.093
G1 F1200 X57.122 Y46.815 E18.97562
G1 X57.735 Y46.152 E18.99363
G1 X58.266 Y45.662 E19.00805
G1 X58.436 Y45.516 E19.01253
G1 X58.683 Y45.311 E19.01893
G1 X58.971 Y45.079 E19.02631
G1 X59.699 Y44.544 E19.04434
G1 X60.41 Y44.109 E19.06097
G1 X60.64 Y43.981 E19.06623
G1 X60.873 Y43.856 E19.0715
G1 X61.177 Y43.697 E19.07835
G1 X61.995 Y43.314 E19.09638
G1 X62.827 Y43.01 E19.11405
G1 X63.277 Y42.87 E19.12346
G1 X63.579 Y42.781 E19.12974
G1 X64.455 Y42.564 E19.14775
G1 X65.355 Y42.425 E19.16592
G1 X65.749 Y42.382 E19.17383
G1 X66.645 Y42.324 E19.19175
G1 X67.902 Y42.298 E19.21684
G1 X68.113 Y42.296 E19.22105
G1 X124.609 Y42.296 E20.34849
G1 X125.117 Y42.303 E20.35863
G1 X125.772 Y42.333 E20.37171
G1 X126.577 Y42.396 E20.38783
G1 X126.924 Y42.429 E20.39478
G1 X127.763 Y42.524 E20.41163
G1 X130.384 Y42.783 E20.46419
G1 X132.924 Y42.962 E20.51501
G1 X135.445 Y43.067 E20.56536
G1 X137.986 Y43.102 E20.61607
G1 X140.511 Y43.065 E20.66647
G1 X143.088 Y42.954 E20.71794
G1 X145.576 Y42.777 E20.76772
G1 X148.216 Y42.513 E20.82067
G1 X149.243 Y42.396 E20.84129
