;FLAVOR:Marlin
;TIME:10421
;Filament used: 5.82284m
;Layer height: 0.12
;MINX:53
;MINY:41.495
;MINZ:0.12
;MAXX:167
;MAXY:176.495
;MAXZ:2.64
;Generated with Creality Slicer 4.8.2-254
M140 S60
M105
M190 S60
M104 S200
M105
M109 S200
M82 ;absolute extrusion mode

G28 ;Home

G92 E0 ;Reset Extruder
G1 Z2.0 F3000 ;Move Z Axis up
G1 X10.1 Y20 Z0.28 F5000.0 ;Move to start position
G1 X10.1 Y200.0 Z0.28 F1500.0 E15 ;Draw the first line
G1 X10.4 Y200.0 Z0.28 F5000.0 ;Move to side a little
G1 X10.4 Y20 Z0.28 F1500.0 E30 ;Draw the second line
G92 E0 ;Reset Extruder
G1 Z2.0 F3000 ;Move Z Axis up

G92 E0
G92 E0
G1 F2400 E-0.8
;LAYER_COUNT:22
;LAYER:0
M107
G0 F6000 X56.276 Y46.577 Z0.12
;TYPE:SKIRT
G1 F2400 E0
G1 F1200 X56.511 Y46.299 E0.00726
G1 X57.147 Y45.609 E0.02599
G1 X57.745 Y45.055 E0.04226
G1 X57.915 Y44.909 E0.04673
G1 X58.181 Y44.688 E0.05363
G1 X58.469 Y44.456 E0.06101
G1 X59.224 Y43.899 E0.07974
G1 X60.021 Y43.41 E0.0984
G1 X60.251 Y43.282 E0.10365
G1 X60.502 Y43.147 E0.10934
G1 X60.806 Y42.988 E0.11618
G1 X61.655 Y42.589 E0.1349
G1 X62.586 Y42.247 E0.1547
G1 X62.842 Y42.166 E0.16005
G1 X63.352 Y42.014 E0.17067
G1 X64.263 Y41.787 E0.18941
G1 X65.269 Y41.63 E0.20973
G1 X65.663 Y41.587 E0.21764
G1 X66.629 Y41.524 E0.23696
G1 X67.886 Y41.498 E0.26205
G1 X68.113 Y41.496 E0.26658
G1 X124.62 Y41.496 E1.39424
G1 X125.128 Y41.503 E1.40437
G1 X125.834 Y41.536 E1.41848
G1 X126.639 Y41.599 E1.43459
G1 X127.014 Y41.634 E1.44211
G1 X127.866 Y41.73 E1.45922
G1 X130.444 Y41.985 E1.51092
G1 X132.979 Y42.164 E1.56163
G1 X135.454 Y42.267 E1.61107
G1 X137.985 Y42.302 E1.66158
G1 X140.501 Y42.265 E1.71179
G1 X143.031 Y42.156 E1.76233
G1 X145.508 Y41.98 E1.81189
G1 X148.118 Y41.719 E1.86423
G1 X149.152 Y41.601 E1.885
G1 X149.603 Y41.558 E1.89404
G1 X150.28 Y41.523 E1.90757
G1 X151.484 Y41.498 E1.9316
G1 X152.031 Y41.495 E1.94252
G1 X152.697 Y41.503 E1.95581
G1 X153.383 Y41.535 E1.96951
G1 X154.184 Y41.597 E1.98555
G1 X155.115 Y41.709 E2.00426
G1 X156.372 Y41.992 E2.02997
G1 X156.647 Y42.071 E2.03568
G1 X156.973 Y42.17 E2.04248
G1 X157.272 Y42.266 E2.04875
G1 X158.152 Y42.59 E2.06746
G1 X159.013 Y42.995 E2.08645
G1 X159.286 Y43.138 E2.0926
G1 X159.596 Y43.306 E2.09964
G1 X159.856 Y43.453 E2.1056
G1 X160.652 Y43.949 E2.12431
G1 X161.251 Y44.39 E2.13916
G1 X161.454 Y44.55 E2.14432
G1 X161.787 Y44.823 E2.15291
G1 X162.033 Y45.033 E2.15936
G1 X162.72 Y45.672 E2.17809
G1 X163.271 Y46.274 E2.19437
G1 X163.43 Y46.461 E2.19927
G1 X163.663 Y46.744 E2.20659
G1 X163.891 Y47.031 E2.2139
G1 X164.442 Y47.789 E2.2326
G1 X164.897 Y48.537 E2.25007
G1 X165.039 Y48.793 E2.25592
G1 X165.23 Y49.153 E2.26405
G1 X165.371 Y49.431 E2.27027
G1 X165.759 Y50.285 E2.28899
G1 X166.002 Y50.945 E2.30302
G1 X166.066 Y51.138 E2.30708
G1 X166.197 Y51.56 E2.3159
G1 X166.308 Y51.946 E2.32391
G1 X166.528 Y52.858 E2.34264
G1 X166.66 Y53.698 E2.35961
G1 X166.689 Y53.944 E2.36455
G1 X166.726 Y54.306 E2.37181
G1 X166.738 Y54.448 E2.37465
G1 X166.775 Y55.145 E2.38858
G1 X166.801 Y56.394 E2.41351
G1 X166.803 Y56.623 E2.41808
G1 X166.803 Y61.417 E2.51375
G1 X166.84 Y64.015 E2.5656
G1 X166.955 Y66.69 E2.61904
G1 X166.972 Y66.991 E2.62505
G1 X166.985 Y67.295 E2.63112
G1 X166.995 Y67.625 E2.63771
G1 X167 Y67.958 E2.64436
G1 X166.999 Y92.812 E3.14035
G1 X166.989 Y93.517 E3.15442
G1 X166.98 Y93.828 E3.16063
G1 X166.934 Y94.876 E3.18156
G1 X166.886 Y95.716 E3.19835
G1 X166.813 Y98.307 E3.25008
G1 X166.804 Y99.603 E3.27594
G1 X166.803 Y104.836 E3.38037
G1 X166.802 Y107.472 E3.43298
G1 X166.932 Y111.25 E3.50842
G1 X166.955 Y111.659 E3.51659
G1 X166.97 Y112.044 E3.52428
G1 X166.998 Y113.408 E3.5515
G1 X167 Y113.634 E3.55602
G1 X166.998 Y161.863 E4.51848
G1 X166.991 Y162.38 E4.5288
G1 X166.96 Y163.069 E4.54256
G1 X166.904 Y163.802 E4.55723
G1 X166.793 Y164.733 E4.57594
G1 X166.608 Y165.632 E4.59426
G1 X166.54 Y165.904 E4.59985
G1 X166.354 Y166.56 E4.61346
G1 X166.244 Y166.907 E4.62072
G1 X165.922 Y167.788 E4.63944
G1 X165.682 Y168.329 E4.65125
G1 X165.528 Y168.641 E4.6582
G1 X165.435 Y168.823 E4.66228
G1 X165.284 Y169.108 E4.66871
G1 X165.12 Y169.407 E4.67552
G1 X164.635 Y170.209 E4.69422
G1 X164.147 Y170.886 E4.71088
G1 X163.994 Y171.082 E4.71584
G1 X163.766 Y171.364 E4.72307
G1 X163.538 Y171.637 E4.73017
G1 X162.906 Y172.331 E4.7489
G1 X162.245 Y172.945 E4.76691
G1 X162.079 Y173.087 E4.77127
G1 X161.836 Y173.289 E4.77757
G1 X161.541 Y173.527 E4.78514
G1 X160.787 Y174.084 E4.80384
G1 X159.957 Y174.592 E4.82326
G1 X159.702 Y174.733 E4.82908
G1 X159.452 Y174.868 E4.83475
G1 X159.173 Y175.013 E4.84102
G1 X158.001 Y175.537 E4.86664
G1 X157.429 Y175.738 E4.87874
G1 X157.22 Y175.805 E4.88312
G1 X156.948 Y175.888 E4.8888
G1 X156.623 Y175.983 E4.89555
G1 X155.713 Y176.208 E4.91426
G1 X154.724 Y176.361 E4.93423
G1 X154.328 Y176.404 E4.94218
G1 X153.367 Y176.466 E4.9614
G1 X152.1 Y176.492 E4.98669
G1 X151.547 Y176.494 E4.99773
G1 X150.95 Y176.487 E5.00964
G1 X150.233 Y176.454 E5.02396
G1 X149.432 Y176.391 E5.04
G1 X149.059 Y176.355 E5.04748
G1 X148.231 Y176.261 E5.06411
G1 X145.67 Y176.008 E5.11546
G1 X143.12 Y175.828 E5.16648
G1 X140.633 Y175.723 E5.21615
G1 X138.111 Y175.688 E5.26649
G1 X135.587 Y175.725 E5.31686
G1 X133.056 Y175.833 E5.36742
G1 X130.572 Y176.009 E5.41711
G1 X128.018 Y176.263 E5.46833
G1 X126.792 Y176.401 E5.49295
G1 X125.787 Y176.468 E5.51305
G1 X124.571 Y176.493 E5.53732
G1 X124.345 Y176.495 E5.54183
G1 X67.798 Y176.493 E6.67029
G1 X67.298 Y176.486 E6.68027
G1 X66.604 Y176.454 E6.69413
G1 X65.815 Y176.393 E6.70992
G1 X64.884 Y176.281 E6.72864
G1 X63.595 Y175.989 E6.75501
G1 X63.323 Y175.91 E6.76067
G1 X63.003 Y175.812 E6.76734
G1 X62.691 Y175.711 E6.77389
G1 X61.812 Y175.385 E6.7926
G1 X60.972 Y174.989 E6.81113
G1 X60.724 Y174.859 E6.81672
G1 X60.455 Y174.713 E6.82283
G1 X60.189 Y174.564 E6.82891
G1 X59.391 Y174.071 E6.84763
G1 X58.693 Y173.557 E6.86493
G1 X58.438 Y173.353 E6.87144
G1 X58.165 Y173.126 E6.87853
G1 X57.959 Y172.95 E6.88394
G1 X57.272 Y172.311 E6.90266
G1 X56.713 Y171.7 E6.91919
G1 X56.546 Y171.503 E6.92434
G1 X56.284 Y171.182 E6.93261
G1 X56.065 Y170.903 E6.93969
G1 X55.518 Y170.141 E6.95841
G1 X55.104 Y169.456 E6.97438
G1 X54.965 Y169.206 E6.98009
G1 X54.754 Y168.808 E6.98908
G1 X54.609 Y168.52 E6.99551
G1 X54.223 Y167.665 E7.01423
G1 X53.957 Y166.926 E7.02991
G1 X53.885 Y166.701 E7.03462
G1 X53.788 Y166.378 E7.04135
G1 X53.69 Y166.036 E7.04845
G1 X53.47 Y165.124 E7.06717
G1 X53.337 Y164.27 E7.08442
G1 X53.306 Y164.002 E7.0898
G1 X53.266 Y163.588 E7.0981
G1 X53.255 Y163.446 E7.10095
G1 X53.224 Y162.827 E7.11331
G1 X53.198 Y161.587 E7.13807
G1 X53.196 Y161.356 E7.14268
G1 X53.196 Y156.557 E7.23845
G1 X53.159 Y153.959 E7.2903
G1 X53.043 Y151.25 E7.34441
G1 X53.028 Y150.995 E7.3495
G1 X53.013 Y150.662 E7.35616
G1 X53.004 Y150.344 E7.36251
G1 X53 Y150.033 E7.36871
G1 X53.001 Y125.179 E7.8647
G1 X53.011 Y124.473 E7.87879
G1 X53.02 Y124.162 E7.885
G1 X53.065 Y123.136 E7.90549
G1 X53.115 Y122.26 E7.923
G1 X53.188 Y119.671 E7.97469
G1 X53.197 Y118.374 E8.00057
G1 X53.2 Y110.544 E8.15683
G1 X53.128 Y107.969 E8.20824
G1 X53.065 Y106.68 E8.23399
G1 X53.047 Y106.37 E8.24019
G1 X53.031 Y105.966 E8.24826
G1 X53.003 Y104.591 E8.2757
G1 X53.001 Y104.367 E8.28017
G1 X53.001 Y56.144 E9.24252
G1 X53.008 Y55.621 E9.25295
G1 X53.041 Y54.908 E9.2672
G1 X53.101 Y54.143 E9.28251
G1 X53.214 Y53.212 E9.30123
G1 X53.42 Y52.238 E9.32109
G1 X53.487 Y51.98 E9.32641
G1 X53.653 Y51.407 E9.33832
G1 X53.76 Y51.071 E9.34535
G1 X54.082 Y50.19 E9.36407
G1 X54.348 Y49.6 E9.37699
G1 X54.5 Y49.293 E9.38382
G1 X54.597 Y49.105 E9.38805
G1 X54.748 Y48.824 E9.39441
G1 X54.904 Y48.542 E9.40084
G1 X55.392 Y47.742 E9.41954
G1 X55.868 Y47.085 E9.43574
G1 X56.016 Y46.896 E9.44053
G1 X56.276 Y46.577 E9.44874
G0 F6000 X56.582 Y46.835
G1 F1200 X56.817 Y46.557 E9.456
G1 X57.441 Y45.88 E9.47438
G1 X58.006 Y45.359 E9.48971
G1 X58.176 Y45.213 E9.49419
G1 X58.432 Y44.999 E9.50084
G1 X58.72 Y44.767 E9.50822
G1 X59.462 Y44.221 E9.52661
G1 X60.215 Y43.76 E9.54423
G1 X60.445 Y43.632 E9.54948
G1 X60.687 Y43.501 E9.55497
G1 X60.991 Y43.342 E9.56182
G1 X61.825 Y42.951 E9.5802
G1 X62.706 Y42.629 E9.59892
G1 X63.164 Y42.486 E9.60849
G1 X63.466 Y42.397 E9.61478
G1 X64.359 Y42.176 E9.63314
G1 X65.312 Y42.028 E9.65238
G1 X65.706 Y41.985 E9.66029
G1 X66.637 Y41.924 E9.67891
G1 X67.894 Y41.898 E9.704
G1 X68.113 Y41.896 E9.70837
G1 X124.614 Y41.896 E10.83591
G1 X125.122 Y41.903 E10.84605
G1 X125.803 Y41.934 E10.85965
G1 X126.608 Y41.997 E10.87577
G1 X126.969 Y42.032 E10.883
G1 X127.778 Y42.123 E10.89925
G1 X130.413 Y42.384 E10.95209
G1 X132.935 Y42.561 E11.00254
G1 X135.468 Y42.667 E11.05314
G1 X137.985 Y42.702 E11.10337
G1 X140.524 Y42.665 E11.15405
G1 X143.043 Y42.556 E11.20436
G1 X145.541 Y42.378 E11.25434
G1 X148.128 Y42.12 E11.30622
G1 X149.197 Y41.998 E11.32769
G1 X149.636 Y41.957 E11.33649
G1 X150.288 Y41.923 E11.34952
G1 X151.492 Y41.898 E11.37355
G1 X152.032 Y41.895 E11.38433
G1 X152.691 Y41.903 E11.39748
G1 X153.352 Y41.934 E11.41069
G1 X154.153 Y41.996 E11.42672
G1 X155.067 Y42.106 E11.44509
G1 X156.262 Y42.376 E11.46954
G1 X156.537 Y42.455 E11.47525
G1 X156.85 Y42.55 E11.48178
G1 X157.149 Y42.646 E11.48804
G1 X158.013 Y42.966 E11.50643
G1 X158.827 Y43.349 E11.52438
G1 X159.1 Y43.492 E11.53053
G1 X159.399 Y43.655 E11.53733
G1 X159.659 Y43.802 E11.54329
G1 X160.44 Y44.289 E11.56166
G1 X161.004 Y44.704 E11.57563
G1 X161.207 Y44.864 E11.58079
G1 X161.527 Y45.127 E11.58906
G1 X161.773 Y45.337 E11.59551
G1 X162.447 Y45.965 E11.61389
G1 X162.966 Y46.533 E11.62925
G1 X163.125 Y46.72 E11.63415
G1 X163.35 Y46.992 E11.64119
G1 X163.578 Y47.279 E11.64851
G1 X164.119 Y48.025 E11.6669
G1 X164.547 Y48.731 E11.68337
G1 X164.689 Y48.987 E11.68921
G1 X164.874 Y49.334 E11.69706
G1 X165.015 Y49.612 E11.70328
G1 X165.395 Y50.451 E11.72166
G1 X165.622 Y51.071 E11.73484
G1 X165.686 Y51.264 E11.7389
G1 X165.812 Y51.671 E11.7474
G1 X165.923 Y52.057 E11.75541
G1 X166.139 Y52.952 E11.77379
G1 X166.263 Y53.745 E11.7898
G1 X166.292 Y53.991 E11.79475
G1 X166.327 Y54.339 E11.80173
G1 X166.339 Y54.481 E11.80457
G1 X166.375 Y55.153 E11.818
G1 X166.401 Y56.402 E11.84293
G1 X166.403 Y56.623 E11.84734
G1 X166.403 Y61.423 E11.94313
G1 X166.44 Y64.039 E11.99534
G1 X166.555 Y66.727 E12.04903
G1 X166.572 Y67.014 E12.05477
G1 X166.585 Y67.307 E12.06062
G1 X166.595 Y67.637 E12.06721
G1 X166.6 Y67.958 E12.07362
G1 X166.599 Y92.806 E12.56949
G1 X166.589 Y93.511 E12.58356
G1 X166.58 Y93.811 E12.58955
G1 X166.535 Y94.854 E12.61038
G1 X166.486 Y95.719 E12.62767
G1 X166.413 Y98.293 E12.67906
G1 X166.404 Y99.6 E12.70514
G1 X166.403 Y104.83 E12.80951
G1 X166.402 Y107.457 E12.86194
G1 X166.534 Y111.285 E12.93837
G1 X166.556 Y111.681 E12.94629
G1 X166.57 Y112.052 E12.9537
G1 X166.598 Y113.416 E12.98092
G1 X166.6 Y113.634 E12.98527
G1 X166.598 Y161.858 E13.94764
G1 X166.591 Y162.375 E13.95795
G1 X166.561 Y163.038 E13.9712
G1 X166.505 Y163.771 E13.98587
G1 X166.395 Y164.686 E14.00426
G1 X166.22 Y165.535 E14.02156
G1 X166.152 Y165.807 E14.02715
G1 X165.972 Y166.439 E14.04027
G1 X165.862 Y166.786 E14.04753
G1 X165.546 Y167.651 E14.06591
G1 X165.32 Y168.158 E14.07699
G1 X165.172 Y168.459 E14.08368
G1 X165.079 Y168.641 E14.08776
G1 X164.934 Y168.916 E14.09396
G1 X164.77 Y169.215 E14.10077
G1 X164.292 Y170.002 E14.11914
G1 X163.832 Y170.64 E14.13484
G1 X163.679 Y170.836 E14.1398
G1 X163.459 Y171.108 E14.14678
G1 X163.231 Y171.381 E14.15388
G1 X162.611 Y172.061 E14.17225
G1 X161.985 Y172.641 E14.18928
G1 X161.819 Y172.783 E14.19364
G1 X161.585 Y172.978 E14.19971
G1 X161.29 Y173.216 E14.20728
G1 X160.549 Y173.762 E14.22565
G1 X159.763 Y174.242 E14.24403
G1 X159.508 Y174.383 E14.24984
G1 X159.267 Y174.513 E14.25531
G1 X158.988 Y174.658 E14.26158
G1 X157.859 Y175.163 E14.28626
G1 X157.307 Y175.357 E14.29794
G1 X157.098 Y175.424 E14.30232
G1 X156.836 Y175.504 E14.30778
G1 X156.511 Y175.599 E14.31454
G1 X155.617 Y175.819 E14.33292
G1 X154.681 Y175.963 E14.35181
G1 X154.285 Y176.006 E14.35976
G1 X153.358 Y176.066 E14.3783
G1 X152.091 Y176.092 E14.40359
G1 X151.547 Y176.094 E14.41445
G1 X150.955 Y176.087 E14.42626
G1 X150.265 Y176.055 E14.44005
G1 X149.464 Y175.992 E14.45608
G1 X149.104 Y175.958 E14.4633
G1 X148.24 Y175.86 E14.48065
G1 X145.705 Y175.609 E14.53148
G1 X143.165 Y175.43 E14.5823
G1 X140.62 Y175.323 E14.63313
G1 X138.111 Y175.288 E14.68321
G1 X135.564 Y175.325 E14.73404
G1 X133.047 Y175.433 E14.78432
G1 X130.541 Y175.611 E14.83445
G1 X127.928 Y175.87 E14.88685
G1 X126.747 Y176.003 E14.91057
G1 X125.779 Y176.068 E14.92993
G1 X124.563 Y176.093 E14.9542
G1 X124.345 Y176.095 E14.95855
G1 X67.804 Y176.093 E16.08689
G1 X67.304 Y176.086 E16.09687
G1 X66.635 Y176.055 E16.11023
G1 X65.846 Y175.994 E16.12603
G1 X64.932 Y175.884 E16.1444
G1 X63.706 Y175.605 E16.16949
G1 X63.434 Y175.526 E16.17514
G1 X63.126 Y175.432 E16.18157
G1 X62.814 Y175.331 E16.18811
G1 X61.952 Y175.009 E16.20648
G1 X61.158 Y174.634 E16.224
G1 X60.91 Y174.504 E16.22959
G1 X60.651 Y174.364 E16.23546
G1 X60.385 Y174.215 E16.24155
G1 X59.602 Y173.731 E16.25992
G1 X58.943 Y173.244 E16.27627
G1 X58.688 Y173.04 E16.28279
G1 X58.425 Y172.822 E16.2896
G1 X58.219 Y172.646 E16.29501
G1 X57.545 Y172.018 E16.31339
G1 X57.018 Y171.441 E16.32899
G1 X56.851 Y171.244 E16.33414
G1 X56.599 Y170.935 E16.3421
G1 X56.38 Y170.656 E16.34918
G1 X55.843 Y169.908 E16.36755
G1 X55.454 Y169.262 E16.3826
G1 X55.315 Y169.012 E16.38831
G1 X55.111 Y168.628 E16.39699
G1 X54.966 Y168.34 E16.40342
G1 X54.588 Y167.5 E16.4218
G1 X54.338 Y166.804 E16.43656
G1 X54.266 Y166.579 E16.44128
G1 X54.172 Y166.268 E16.44776
G1 X54.074 Y165.926 E16.45486
G1 X53.859 Y165.031 E16.47323
G1 X53.734 Y164.224 E16.48953
G1 X53.703 Y163.956 E16.49491
G1 X53.665 Y163.557 E16.50291
G1 X53.654 Y163.415 E16.50575
G1 X53.624 Y162.818 E16.51768
G1 X53.598 Y161.578 E16.54243
G1 X53.596 Y161.356 E16.54686
G1 X53.596 Y156.551 E16.64275
G1 X53.559 Y153.936 E16.69494
G1 X53.445 Y151.274 E16.74811
G1 X53.427 Y150.972 E16.75415
G1 X53.413 Y150.651 E16.76056
G1 X53.404 Y150.333 E16.76691
G1 X53.4 Y150.033 E16.7729
G1 X53.401 Y125.185 E17.26877
G1 X53.411 Y124.479 E17.28286
G1 X53.42 Y124.179 E17.28885
G1 X53.464 Y123.158 E17.30924
G1 X53.515 Y122.258 E17.32723
G1 X53.588 Y119.685 E17.3786
G1 X53.597 Y118.377 E17.4047
G1 X53.6 Y110.533 E17.56124
G1 X53.527 Y107.94 E17.613
G1 X53.469 Y106.749 E17.6368
G1 X53.446 Y106.347 E17.64483
G1 X53.431 Y105.958 E17.6526
G1 X53.403 Y104.583 E17.68005
G1 X53.401 Y104.367 E17.68436
G1 X53.401 Y56.149 E18.6466
G1 X53.408 Y55.626 E18.65704
G1 X53.439 Y54.939 E18.67076
G1 X53.499 Y54.174 E18.68608
G1 X53.611 Y53.26 E18.70445
G1 X53.807 Y52.339 E18.72324
G1 X53.874 Y52.081 E18.72856
G1 X54.034 Y51.529 E18.74003
G1 X54.141 Y51.193 E18.74707
G1 X54.458 Y50.328 E18.76545
G1 X54.708 Y49.775 E18.77756
G1 X54.856 Y49.477 E18.7842
G1 X54.953 Y49.289 E18.78843
G1 X55.098 Y49.018 E18.79456
G1 X55.254 Y48.736 E18.80099
G1 X55.734 Y47.95 E18.81937
G1 X56.183 Y47.332 E18.83461
G1 X56.331 Y47.143 E18.8394
G1 X56.582 Y46.835 E18.84733
G0 F6000 X56.887 Y47.093
G1 F1200 X57.122 Y46.815 E18.8546
G1 X57.735 Y46.152 E18.87262
G1 X58.266 Y45.662 E18.88704
G1 X58.436 Y45.516 E18.89151
G1 X58.683 Y45.311 E18.89791
G1 X58.971 Y45.079 E18.90529
G1 X59.699 Y44.544 E18.92332
G1 X60.41 Y44.109 E18.93996
G1 X60.64 Y43.981 E18.94521
G1 X60.873 Y43.856 E18.95049
G1 X61.177 Y43.697 E18.95733
G1 X61.995 Y43.314 E18.97536
G1 X62.827 Y43.01 E18.99303
G1 X63.277 Y42.87 E19.00244
G1 X63.579 Y42.781 E19.00872
G1 X64.455 Y42.564 E19.02673
G1 X65.355 Y42.425 E19.04491
G1 X65.749 Y42.382 E19.05282
G1 X66.645 Y42.324 E19.07073
G1 X67.902 Y42.298 E19.09582
G1 X68.113 Y42.296 E19.10003
G1 X124.609 Y42.296 E20.22747
G1 X125.117 Y42.303 E20.23761
G1 X125.772 Y42.333 E20.2507
G1 X126.577 Y42.396 E20.26681
G1 X126.924 Y42.429 E20.27377
G1 X127.763 Y42.524 E20.29062
G1 X130.384 Y42.783 E20.34318
G1 X132.924 Y42.962 E20.39399
G1 X135.445 Y43.067 E20.44434
G1 X137.986 Y43.102 E20.49506
G1 X140.511 Y43.065 E20.54545
G1 X143.088 Y42.954 E20.59693
G1 X145.576 Y42.777 E20.6467
G1 X148.216 Y42.513 E20.69965
G1 X149.243 Y42.396 E20.72028
G1 X149.669 Y42.356 E20.72881
